X:1
T:Title
%%score { 1 | ( 2 3 ) }
L:1/8
Q:1/4=175
M:none
K:Ab
V:1 treble nm="Part_1"
V:2 bass 
V:3 bass 
V:1
 z2 [Aa]2 z2 | [Gg]2 z2 z2 | [_G_g]2 z2 z2 | [Ff]2 d2 z2 | [Bf]2 z2 z2 | [Be]2 z2 z2 | d2 B2 dB | %7
 GB d=d e2 | A<A B<B =B<B |[K:Ab] d<d B<B =B<B | e<e d<d =B<B | F<F A<A d<d | %12
[K:Ab] D[EAB] F[GAB] A[AB] | [Dd][EBe] [Ff][GBg] [Ag][AB] | E[FGB] G[GAB] B[Gc] | %15
 [Dd][EBe] [Ff][GBg] [Bb][GB] ||[K:Bb][Q:1/4=180] B<[FB] c<[Fc] _d<[Fd] | A<[FA] c<[Fc] _d<[Fd] | %18
 _A<[FA] c<[Fc] _d<[Fd] |[K:Bb] G<[EG] B<[GB] e/d/[Be] | .e[Gc] .e[Gc] .e[Gc] | %21
 .A[FAc] .e[FA=e] .f[FA] | .e[Gc] .e[Gc] .e[Gc] | .A[FBc] .e[FA=e] .f[FA] | B<[FB] c<[Fc] _d<[Fd] | %25
 e<[Ae] c<[Ac] _d<[Ad] | f<[Bf] e<[Be] c<[_Ac] | G<[EG] B<[GB] e<[Be] | EF G[G_A] B[Gc] | %29
 e[GBf] g[Ba] b[GB] | FG =A[FB] c[Fd] | e[Af] g[Aa] =b[FA]/ B,/4C/4- | %32
[Q:1/4=188] C[CEG] z [DG]/>E/- E[EG] | =B,[DG] D[DG] E[DG]/ _A,/4_B,/4- | %34
 B,[B,EG] x [DG]/>E/- E[EG] | A,[EF] C[EF] F[CE] | (3:2:2[CF]2 D (3:2:2[CF]2 D [CF]2 | %37
 [G,=B,]2 (3:2:2z2 !tenuto![DF] (3:2:2z2 [DG] | (3:2:2[CF]2 D (3:2:2z2 D (3:2:2F2 D | %39
 [=B,DG] z (3:2:2z2 !tenuto!D z3/2 G,/ | (3:2:2[G,C]2 z (3:2:2z2 =B, (3:2:2C2 D | %41
 (3:2:2[=B,DF]2 F (3:2:2z2 D (3:2:2E2 F | (3:2:2[B,EG_A]2 [EA] (3:2:2z2 F [CE]2 | %43
 [F,A,C]2 (3:2:2z2 [A,CF]- [A,CF]2 | [A,F] [=B,G]2 [CA]2 [A,CF]- | [A,CF] [=B,G]2 [CA]2 [B,G=B]- | %46
 [B,GB] [CA]2 [DG=B]2 [DB] | [G=Bd][GBd] ga _b[f=b] | [cgc'][gc'] z z e/f/g/a/ | [=Bf=b] z z4 |] %50
V:2
 A,2 [A,B,]2 [A,=B,]2 | G,2 [G,B,]2 [G,=B,]2 | _G,2 [G,B,]2 [G,=B,]2 | F,2 [F,A,]2 [F,D]2 | %4
 [F,D]2 [F,B,]2 [=E,D]2 | [_E,-G,][E,B,] [E,-D][E,=D] [E,E]2 | %6
 [F,-D][F,B,] [F,-D][F,B,] [=E,-D][E,B,] | [E,-G,][E,B,] [E,-D][E,=D] [E,E]B,, | A,2 E,2 [A,,A,]2 | %9
[K:Ab] G,2 E,2 [G,,G,]2 | _G,2 E,2 [_G,,G,]2 | [D,D]2 A,2 [D,D-][A,,D] |[K:Ab] B,,4 B,,F,, | %13
 B,,4 F,,B,, | E,4 E,B,, | E,3 E,,/B,,/ E,E,, ||[K:Bb] B,,4 B,,2 | A,,4 A,,2 | _A,,4 A,,2 | %19
[K:Bb] E,E, B,,2 E,B,, | C,2 G,,G,, C,E, | [F,C][F,C] C,C, F,C, | C,C, G,,G,, C,G,, | %23
 [F,C][F,C] C,C, F,C, | B,, B,,3 B,,B,, | A,, A,,3 A,,2 | _A,, A,,3 A,,2 | E,E, B,,B,, E,B,, | %28
 C,C, G,,G,, C,G,, | C,C, G,,G,, _A,,A,, | F,F, C,C, F,C, | F,,,F,, C,C, F,,F,,, | %32
 C,,C, C,,C,, C,,C, | =B,,,=B,, B,,,B,, B,,,B,, | _B,,,_B,, B,,,B,,, B,,,B,, | %35
 A,,,A,, A,,,A,, A,,,A,, | D,,D, D,,D, D,,D, | G,,,G,, G,,,G,, G,,,G,, | D,,D, D,,D, D,,D, | %39
 G,,,G,, G,,,G,, G,,,G,, | C,,C, C,,C,, C,,C, | =B,,,=B,, B,,,B,, B,,,B,, | %42
 _B,,,_B,, B,,,B,,, B,,,B,, | A,,,A,, A,,,A,, A,,,A,, | D,,D, D,,D, D,,D, | D,,D, D,,D, D,,D, | %46
 G,,,G,, G,,,G,, G,,,G,, | G,,, G,,2 G,,2 G,, | C,, [C,,C,]2 [C,,C,]2 [C,,C,] | [=B,,,=B,,] z z4 |] %50
V:3
 x6 | x6 | x6 | x6 | x6 | x6 | x6 | x6 | A,,4 x2 |[K:Ab] G,,4 x2 | _G,,4 x2 | x6 |[K:Ab] x6 | x6 | %14
 x6 | x6 ||[K:Bb] x6 | x6 | x6 |[K:Bb] x6 | x6 | x6 | x6 | x6 | x6 | x6 | x6 | x6 | x6 | x6 | x6 | %31
 x6 | x6 | x6 | x6 | x6 | x6 | x6 | x6 | x6 | x6 | x6 | x6 | x6 | x6 | x6 | x6 | x6 | x6 | x6 |] %50

